X: 1
T: String Quartet in B\b major opus 1 no 1 mvt 1
C: Franz Joseph Haydn
%%abc-version 2.0
%%abcx-abcm2ps-target-version 5.9.1 (29 Sep 2008)
%%abc-creator hum2abc beta
%%abcx-conversion-date 2021/02/14 14:38:23
%%abc-copyright Copyright (c) 1994, 2000 Center for Computer Assisted Research in the Humanities
%%abc-edited-by Frances Bennion
%%abcx-initial-encoding-date 1997/04/15
%%gracespace 0 6 6
%%humdrum-veritas 566420439
%%humdrum-veritas-data 8399577
%%linebreak <none>
%%barnumbers 0
L: 1/8
M: 6/8
N: Derived from op01n1-01.krn
Q: "Allegro"
%%staves [1 2 3 4]
V: 1
V: 2
V: 3 clef=alto
V: 4 clef=bass
K: Bb
[V:1]z4 zB, [I:setbarnb1]|
[V:2]z4 zB, |
[V:3]z4 zB, |
[V:4]z4 zB,, |
[V:1]B,2D D2F |
[V:2]B,2D D2F |
[V:3]B,2D D2F |
[V:4]B,,2D, D,2F, |
[V:1]F2B B2f |
[V:2]F2B B2d |
[V:3]F2B B2z |
[V:4]F,2B, B,2z |
[V:1]fbg f2z |
[V:2]d2e d2d |
[V:3]z4 zB |
[V:4]z4 zF, |
[V:1]z4 zB, |
[V:2]cde d2B, |
[V:3]ABc B2B, |
[V:4]F,F,F, B,,2B,, |
[V:1]B,2D D2F |
[V:2]B,2D D2F |
[V:3]B,2D D2F |
[V:4]B,,2D, D,2F, |
[V:1]F2B B2d |
[V:2]F2B B2B |
[V:3]F2B B2z |
[V:4]F,2B, B,2z |
[V:1]cfd c2z |
[V:2]A2B A2d |
[V:3]z4 zB |
[V:4]z4 zF, |
[V:1]z4 zd |
[V:2]cde d2z |
[V:3]ABc B2z |
[V:4]F,F,F, B,,2z |
[V:1]bg=e fcc |
[V:2]dBG FAz |
[V:3]z2B AFz |
[V:4]z2B, A,F,z |
[V:1]g=eB Acc |
[V:2]BG=E F2z |
[V:3]z2G FAz |
[V:4]z2C, F,A,z |
[V:1]dBG cAF |
[V:2]DGB CFA |
[V:3]B3 A3 |
[V:4]B,3 A,3 |
[V:1]=EBB BAc |
[V:2]B,=EE F2z |
[V:3]G2C F2z |
[V:4]G,2C, F,2z |
[V:1]bg=e fcc |
[V:2]z2>C2 =EF |
[V:3]G2>A2 GF |
[V:4]C,CB, A,G,F, |
[V:1]g=eB Acc |
[V:2]CGG FAA |
[V:3]=ECE F2z |
[V:4]=E,C,E, F,2z |
[V:1]dd=e ffg |
[V:2]BBc dd=e |
[V:3]z6 |
[V:4]z6 |
[V:1]aab c'2z |
[V:2]ffg a2z |
[V:3]z6 |
[V:4]z6 |
[V:1]b/g/=e/c/B/G/ F2z |
[V:2]=EEE Fc/A/G/F/ |
[V:3]GGG AAA |
[V:4]C,C,C, C,C,C, |
[V:1]b/g/=e/c/B/G/ F2z |
[V:2]=EEE Fc/A/G/F/ |
[V:3]GGG AAA |
[V:4]C,C,C, C,C,C, |
[V:1]b/g/=e/c/B/G/ F/A/c/e/f/a/ |
[V:2]=EEE FFF |
[V:3]GGG AAA |
[V:4]C,C,C, C,C,C, |
[V:1]b/g/=e/c/B/G/ F2A, |
[V:2]=EEE F2A, |
[V:3]GGG FzA, |
[V:4]C,C,C, F,2A,, |
[V:1]B,B,C DFA, |
[V:2]B,B,C DFA, |
[V:3]B,B,C DFA, |
[V:4]B,,B,,C, D,F,A,, |
[V:1]B,G=E FzG |
[V:2]B,G=E FzE |
[V:3]B,2G, A,2C/B,/ |
[V:4]B,,2C, F,2C, |
[V:1]FzG FzG |
[V:2]Fz=E FzE |
[V:3]A,2C/B,/ A,2C/B,/ |
[V:4]F,2C, F,2C, |
[V:1]FFG F2d' |
[V:2]FF=E F2z |
[V:3]A,2C/B,/ A,2z |
[V:4]F,2C, F,2z |
[V:1]d'/=b/g/f/d/=B/ G2z |
[V:2]z4 zD |
[V:3]z4 z=B, |
[V:4]z4 zG, |
[V:1]z4 zc' |
[V:2]DEF E2z |
[V:3]=B,CD C2z |
[V:4]G,G,G, C,2z |
[V:1]c'/a/f/e/c/A/ F2z |
[V:2]z4 zC |
[V:3]z4 zA, |
[V:4]z4 zF, |
[V:1]z4 zB |
[V:2]CDE D2z |
[V:3]A,B,C B,2B, |
[V:4]F,F,F, B,,2D, |
[V:1]GE2 <z2d |
[V:2]z2c AFz |
[V:3]B,CC CDD |
[V:4]E,3 F,3 |
[V:1]BG2 <z2f |
[V:2]z2e cAz |
[V:3]DEE EFC |
[V:4]G,3 A,3 |
[V:1]fff bfz |
[V:2]z4 zd |
[V:3]D2z3 B |
[V:4]B,z4 F, |
[V:1]z4 zf |
[V:2]cde d2z |
[V:3]ABc B2z |
[V:4]F,F,F, B,2z |
[V:1]fg/f/g/f/ bfz |
[V:2]z4 zf |
[V:3]z4 zd |
[V:4]z4 zF, |
[V:1]z4 zf |
[V:2]fed c2z |
[V:3]dcB A2z |
[V:4]F,F,F, F,2z |
[V:1]_gf2 <z2f |
[V:2]z2c _dcz |
[V:3]z2A BAz |
[V:4]z2F, =E,F,z |
[V:1]_gf2 <z2F |
[V:2]z2c _dcF |
[V:3]z2A BAF |
[V:4]z2F, =E,F,F, |
[V:1]B2F _D2B, |
[V:2]B2F _D2B, |
[V:3]B2F _D2B, |
[V:4]B,2F, _D,2B,, |
[V:1]_GF=E F2B |
[V:2]_GF=E F2E |
[V:3]_GF=E F2_D |
[V:4]_G,F,=E, F,2z |
[V:1]AfB AfB |
[V:2]F2=E F2E |
[V:3]C2_D C2D |
[V:4]F,,2z F,,2z |
[V:1]AfB AzB, |
[V:2]F2=E FzB, |
[V:3]C2_D C2B, |
[V:4]F,,2z F,,zB,, |
[V:1]B,2D D2F |
[V:2]B,2D D2F |
[V:3]B,2D D2F |
[V:4]B,,2D, D,2F, |
[V:1]F2B B2f |
[V:2]F2B B2d |
[V:3]F2B B2z |
[V:4]F,2B, B,2z |
[V:1]fbg f2z |
[V:2]d2e d2d |
[V:3]z4 zB |
[V:4]z4 zF, |
[V:1]z4 zB, |
[V:2]cde d2B, |
[V:3]ABc B2B, |
[V:4]F,F,F, B,,2B,, |
[V:1]B,2E E2G |
[V:2]B,2E E2G |
[V:3]B,2E E2G |
[V:4]B,,2E, E,2G, |
[V:1]G2B B2g |
[V:2]G2B B2e |
[V:3]G2B B2z |
[V:4]G,2B, B,2z |
[V:1]gbg f2z |
[V:2]ege d2d |
[V:3]z4 zB |
[V:4]z4 zF, |
[V:1]z4 zd |
[V:2]cde d2z |
[V:3]ABc B2z |
[V:4]F,F,F, B,2z |
[V:1]bg=e fcc |
[V:2]B3 A3 |
[V:3]G3 F3 |
[V:4]C3 F,3 |
[V:1]_afd eBB |
[V:2]_A3 G3 |
[V:3]F3 E3 |
[V:4]B,3 E,3 |
[V:1]gec fdB |
[V:2]Gce FBd |
[V:3]e3 d3 |
[V:4]E3 D3 |
[V:1]Aee dBF |
[V:2]EAA B2D |
[V:3]c2c B2z |
[V:4]C2F, B,2z |
[V:1]GGA BBc |
[V:2]EEF GGA |
[V:3]z6 |
[V:4]z6 |
[V:1]dde f2z |
[V:2]BBc d2z |
[V:3]z6 |
[V:4]z6 |
[V:1]e/c/A/F/E/C/ B,2z |
[V:2]A,A,A, B,F/D/C/B,/ |
[V:3]CCC DDD |
[V:4]F,F,F, F,F,F, |
[V:1]e/c/A/F/E/C/ B,2z |
[V:2]A,A,A, B,F/D/C/B,/ |
[V:3]CCC DDD |
[V:4]F,F,F, F,F,F, |
[V:1]e/c/A/F/E/C/ B,/D/F/A/B/d/ |
[V:2]A,A,A, B,B,B, |
[V:3]CCC DDD |
[V:4]F,F,F, F,F,F, |
[V:1]e/c/A/F/E/C/ B,2F |
[V:2]A,A,A, B,2F |
[V:3]CCF, B,2F |
[V:4]F,F,F, B,2F, |
[V:1]GGA BdF |
[V:2]GGA BdF |
[V:3]GGA BdD |
[V:4]G,G,A, B,DD, |
[V:1]GcA Bzc |
[V:2]GcA BzA, |
[V:3]E2C DzF, |
[V:4]E,2F, B,,zF,, |
[V:1]Bzc Bzc |
[V:2]B,zA, B,zA, |
[V:3]B,zF, B,zF, |
[V:4]B,,zF,, B,,zF,, |
[V:1]BBc B2z |]
[V:2]B,B,A, B,2z |]
[V:3]B,2F, B,2z |]
[V:4]B,,2F,, B,,2z |]

